!!! OTL: Berkowitz105
!!! Chapter: 1
!!! Section: I
!!! Page: 26
!!! Mode: 
!!! Encoder: DJB
**kern
*staff1
*I"Piano
*clefG2
*k[b-]
*d:
*M3/4
4a/
=1
4f/
4d/
4a/
=2
4f/
4d/
4dd\
=3
4cc#\
4dd\
4ee\
=4
4a/
4r
8g/L
8a/J
=5
4.b-\
8a/
4g/
=6
4a/
4f/
4d/
=7
4e/
4f/
4g/
=8
4a/
4r
8dd\L
8cc\J
=9
4.b-\
8a/
4g/
=10
!!linebreak:original
4a/
4f/
4e/
=11
4d/
4dd\
4cc#\
=12
4dd\
2r
==
*-
